public/images/logo/logo.svg

<svg width="154" height="32" viewBox="0 0 154 32" fill="none" xmlns="http://www.w3.org/2000/svg">
<path d="M0 8.42105C0 3.77023 3.77023 0 8.42105 0H23.5789C28.2298 0 32 3.77023 32 8.42105V23.5789C32 28.2298 28.2298 32 23.5789 32H8.42105C3.77023 32 0 28.2298 0 23.5789V8.42105Z" fill="#465FFF"/>
<g filter="url(#filter0_d_1624_24907)">
<path d="M8.42383 8.42152C8.42383 7.49135 9.17787 6.7373 10.108 6.7373V6.7373C11.0382 6.7373 11.7922 7.49135 11.7922 8.42152V23.5794C11.7922 24.5096 11.0382 25.2636 10.108 25.2636V25.2636C9.17787 25.2636 8.42383 24.5096 8.42383 23.5794V8.42152Z" fill="white"/>
</g>
<g filter="url(#filter1_d_1624_24907)">
<path d="M14.7422 15.1569C14.7422 14.2267 15.4962 13.4727 16.4264 13.4727V13.4727C17.3566 13.4727 18.1106 14.2267 18.1106 15.1569V23.5779C18.1106 24.5081 17.3566 25.2621 16.4264 25.2621V25.2621C15.4962 25.2621 14.7422 24.5081 14.7422 23.5779V15.1569Z" fill="white" fill-opacity="0.9" shape-rendering="crispEdges"/>
</g>
<g filter="url(#filter2_d_1624_24907)">
<path d="M21.0547 10.9459C21.0547 10.0158 21.8087 9.26172 22.7389 9.26172V9.26172C23.6691 9.26172 24.4231 10.0158 24.4231 10.9459V23.5775C24.4231 24.5077 23.6691 25.2617 22.7389 25.2617V25.2617C21.8087 25.2617 21.0547 24.5077 21.0547 23.5775V10.9459Z" fill="white" fill-opacity="0.7" shape-rendering="crispEdges"/>
</g>
<path d="M44 10.1149H49.0885V24.6909H52.1321V10.1149H57.2206V7.30912H44V10.1149Z" fill="#101828"/>
<path d="M60.6175 25C62.4484 25 64.0416 24.1678 64.5409 22.9551L64.7549 24.6909H67.2992V17.5575C67.2992 14.2999 65.3494 12.5878 62.1869 12.5878C59.0006 12.5878 56.9081 14.2523 56.9081 16.7966H59.3811C59.3811 15.5601 60.3322 14.8468 62.0442 14.8468C63.5185 14.8468 64.4696 15.4888 64.4696 17.0819V17.3435L60.9504 17.605C58.1684 17.819 56.599 19.1744 56.599 21.3382C56.599 23.5495 58.1208 25 60.6175 25ZM61.5686 22.8124C60.2609 22.8124 59.5475 22.2893 59.5475 21.2193C59.5475 20.2682 60.2371 19.6737 62.0442 19.5073L64.4934 19.317V19.9353C64.4934 21.7424 63.352 22.8124 61.5686 22.8124Z" fill="#101828"/>
<path d="M71.5995 10.5905C72.5506 10.5905 73.3353 9.80581 73.3353 8.83091C73.3353 7.85601 72.5506 7.09511 71.5995 7.09511C70.6008 7.09511 69.8161 7.85601 69.8161 8.83091C69.8161 9.80581 70.6008 10.5905 71.5995 10.5905ZM70.149 24.6909H73.0499V12.9445H70.149V24.6909Z" fill="#101828"/>
<path d="M78.9718 24.6909V7H76.0946V24.6909H78.9718Z" fill="#101828"/>
<path d="M83.9408 24.6909L85.3437 20.6724H91.8352L93.2381 24.6909H96.4481L90.1707 7.30912H87.0558L80.7784 24.6909H83.9408ZM88.2209 12.4927C88.3873 12.0172 88.53 11.4941 88.6013 11.1612C88.6489 11.5178 88.8153 12.041 88.958 12.4927L90.9554 18.1044H86.2473L88.2209 12.4927Z" fill="#101828"/>
<path d="M102.493 25C104.276 25 105.798 24.2153 106.511 22.86L106.701 24.6909H109.364V7H106.487V14.4425C105.75 13.2774 104.3 12.5878 102.659 12.5878C99.1161 12.5878 96.9761 15.2034 96.9761 18.8653C96.9761 22.5033 99.0923 25 102.493 25ZM103.135 22.3369C101.113 22.3369 99.877 20.8626 99.877 18.7701C99.877 16.6777 101.113 15.1797 103.135 15.1797C105.156 15.1797 106.463 16.6539 106.463 18.7701C106.463 20.8864 105.156 22.3369 103.135 22.3369Z" fill="#101828"/>
<path d="M115.289 24.6909V18.033C115.289 16.1308 116.406 15.2272 117.785 15.2272C119.164 15.2272 120.044 16.107 120.044 17.7477V24.6909H122.945V18.033C122.945 16.107 124.015 15.2034 125.418 15.2034C126.797 15.2034 127.701 16.0832 127.701 17.7715V24.6909H130.578V17.0106C130.578 14.2999 129.008 12.5878 126.155 12.5878C124.372 12.5878 122.993 13.4676 122.398 14.823C121.78 13.4676 120.543 12.5878 118.76 12.5878C117.072 12.5878 115.883 13.3487 115.289 14.3236L115.051 12.9445H112.388V24.6909H115.289Z" fill="#101828"/>
<path d="M134.876 10.5905C135.827 10.5905 136.612 9.80581 136.612 8.83091C136.612 7.85601 135.827 7.09511 134.876 7.09511C133.877 7.09511 133.093 7.85601 133.093 8.83091C133.093 9.80581 133.877 10.5905 134.876 10.5905ZM133.426 24.6909H136.327V12.9445H133.426V24.6909Z" fill="#101828"/>
<path d="M142.225 24.6909V18.3659C142.225 16.4637 143.318 15.2272 145.102 15.2272C146.6 15.2272 147.575 16.1783 147.575 18.1519V24.6909H150.476V17.4624C150.476 14.4188 148.954 12.5878 146.005 12.5878C144.412 12.5878 142.985 13.2774 142.248 14.4663L142.011 12.9445H139.324V24.6909H142.225Z" fill="#101828"/>
<defs>
<filter id="filter0_d_1624_24907" x="7.42383" y="6.2373" width="5.36841" height="20.5263" filterUnits="userSpaceOnUse" color-interpolation-filters="sRGB">
<feFlood flood-opacity="0" result="BackgroundImageFix"/>
<feColorMatrix in="SourceAlpha" type="matrix" values="0 0 0 0 0 0 0 0 0 0 0 0 0 0 0 0 0 0 127 0" result="hardAlpha"/>
<feOffset dy="0.5"/>
<feGaussianBlur stdDeviation="0.5"/>
<feComposite in2="hardAlpha" operator="out"/>
<feColorMatrix type="matrix" values="0 0 0 0 0 0 0 0 0 0 0 0 0 0 0 0 0 0 0.12 0"/>
<feBlend mode="normal" in2="BackgroundImageFix" result="effect1_dropShadow_1624_24907"/>
<feBlend mode="normal" in="SourceGraphic" in2="effect1_dropShadow_1624_24907" result="shape"/>
</filter>
<filter id="filter1_d_1624_24907" x="13.7422" y="12.9727" width="5.36841" height="13.7895" filterUnits="userSpaceOnUse" color-interpolation-filters="sRGB">
<feFlood flood-opacity="0" result="BackgroundImageFix"/>
<feColorMatrix in="SourceAlpha" type="matrix" values="0 0 0 0 0 0 0 0 0 0 0 0 0 0 0 0 0 0 127 0" result="hardAlpha"/>
<feOffset dy="0.5"/>
<feGaussianBlur stdDeviation="0.5"/>
<feComposite in2="hardAlpha" operator="out"/>
<feColorMatrix type="matrix" values="0 0 0 0 0 0 0 0 0 0 0 0 0 0 0 0 0 0 0.12 0"/>
<feBlend mode="normal" in2="BackgroundImageFix" result="effect1_dropShadow_1624_24907"/>
<feBlend mode="normal" in="SourceGraphic" in2="effect1_dropShadow_1624_24907" result="shape"/>
</filter>
<filter id="filter2_d_1624_24907" x="20.0547" y="8.76172" width="5.36841" height="18" filterUnits="userSpaceOnUse" color-interpolation-filters="sRGB">
<feFlood flood-opacity="0" result="BackgroundImageFix"/>
<feColorMatrix in="SourceAlpha" type="matrix" values="0 0 0 0 0 0 0 0 0 0 0 0 0 0 0 0 0 0 127 0" result="hardAlpha"/>
<feOffset dy="0.5"/>
<feGaussianBlur stdDeviation="0.5"/>
<feComposite in2="hardAlpha" operator="out"/>
<feColorMatrix type="matrix" values="0 0 0 0 0 0 0 0 0 0 0 0 0 0 0 0 0 0 0.12 0"/>
<feBlend mode="normal" in2="BackgroundImageFix" result="effect1_dropShadow_1624_24907"/>
<feBlend mode="normal" in="SourceGraphic" in2="effect1_dropShadow_1624_24907" result="shape"/>
</filter>
</defs>
</svg>

<?xml version="1.0" encoding="UTF-8"?>
<svg id="Layer_1" xmlns="http://www.w3.org/2000/svg" version="1.1" viewBox="0 0 154 32">
  <!-- Generator: Adobe Illustrator 29.8.2, SVG Export Plug-In . SVG Version: 2.1.1 Build 3)  -->
  <defs>
    <style>
      .st0 {
        font-family: MS-UIGothic, 'MS UI Gothic';
        font-size: 26px;
      }

      .st1, .st2, .st3 {
        fill: #fff;
      }

      .st2 {
        fill-opacity: .9;
      }

      .st4 {
        fill: #101828;
      }

      .st5 {
        fill: #465fff;
      }

      .st3 {
        fill-opacity: .7;
      }
    </style>
  </defs>
  <path class="st5" d="M0,8.42C0,3.77,3.77,0,8.42,0h15.16C28.23,0,32,3.77,32,8.42v15.16c0,4.65-3.77,8.42-8.42,8.42h-15.16c-4.65,0-8.42-3.77-8.42-8.42v-15.16Z"/>
  <path class="st1" d="M8.42,8.42c0-.93.75-1.68,1.68-1.68h0c.93,0,1.68.75,1.68,1.68v15.16c0,.93-.75,1.68-1.68,1.68h0c-.93,0-1.68-.75-1.68-1.68v-15.16Z"/>
  <path class="st2" d="M14.74,15.16c0-.93.75-1.68,1.68-1.68h0c.93,0,1.68.75,1.68,1.68v8.42c0,.93-.75,1.68-1.68,1.68h0c-.93,0-1.68-.75-1.68-1.68v-8.42Z" shape-rendering="crispEdges"/>
  <path class="st3" d="M21.05,10.95c0-.93.75-1.68,1.68-1.68h0c.93,0,1.68.75,1.68,1.68v12.63c0,.93-.75,1.68-1.68,1.68h0c-.93,0-1.68-.75-1.68-1.68v-12.63Z" shape-rendering="crispEdges"/>
  <path class="st4" d="M44,10.11h5.09v14.58h3.04v-14.58h5.09v-2.81h-13.22v2.81Z"/>
  <path class="st4" d="M60.62,25c1.83,0,3.42-.83,3.92-2.04l.21,1.74h2.54v-7.13c0-3.26-1.95-4.97-5.11-4.97s-5.28,1.66-5.28,4.21h2.47c0-1.24.95-1.95,2.66-1.95,1.47,0,2.43.64,2.43,2.24v.26l-3.52.26c-2.78.21-4.35,1.57-4.35,3.73s1.52,3.66,4.02,3.66ZM61.57,22.81c-1.31,0-2.02-.52-2.02-1.59,0-.95.69-1.55,2.5-1.71l2.45-.19v.62c0,1.81-1.14,2.88-2.92,2.88Z"/>
  <path class="st4" d="M71.6,10.59c.95,0,1.74-.78,1.74-1.76s-.78-1.74-1.74-1.74c-1,0-1.78.76-1.78,1.74s.78,1.76,1.78,1.76ZM70.15,24.69h2.9v-11.75h-2.9v11.75Z"/>
  <path class="st4" d="M78.97,24.69V7h-2.88v17.69h2.88Z"/>
  <path class="st4" d="M83.94,24.69l1.4-4.02h6.49l1.4,4.02h3.21l-6.28-17.38h-3.11l-6.28,17.38h3.16ZM88.22,12.49c.17-.48.31-1,.38-1.33.05.36.21.88.36,1.33l2,5.61h-4.71l1.97-5.61Z"/>
  <path class="st4" d="M102.49,25c1.78,0,3.31-.78,4.02-2.14l.19,1.83h2.66V7h-2.88v7.44c-.74-1.17-2.19-1.85-3.83-1.85-3.54,0-5.68,2.62-5.68,6.28s2.12,6.13,5.52,6.13ZM103.14,22.34c-2.02,0-3.26-1.47-3.26-3.57s1.24-3.59,3.26-3.59,3.33,1.47,3.33,3.59-1.31,3.57-3.33,3.57Z"/>
  <path class="st4" d="M115.29,24.69v-6.66c0-1.9,1.12-2.81,2.5-2.81s2.26.88,2.26,2.52v6.94h2.9v-6.66c0-1.93,1.07-2.83,2.47-2.83s2.28.88,2.28,2.57v6.92h2.88v-7.68c0-2.71-1.57-4.42-4.42-4.42-1.78,0-3.16.88-3.76,2.24-.62-1.36-1.86-2.24-3.64-2.24-1.69,0-2.88.76-3.47,1.74l-.24-1.38h-2.66v11.75h2.9Z"/>
  <path class="st4" d="M134.88,10.59c.95,0,1.74-.78,1.74-1.76s-.79-1.74-1.74-1.74c-1,0-1.78.76-1.78,1.74s.78,1.76,1.78,1.76ZM133.43,24.69h2.9v-11.75h-2.9v11.75Z"/>
  <path class="st4" d="M142.23,24.69v-6.33c0-1.9,1.09-3.14,2.88-3.14,1.5,0,2.47.95,2.47,2.92v6.54h2.9v-7.23c0-3.04-1.52-4.87-4.47-4.87-1.59,0-3.02.69-3.76,1.88l-.24-1.52h-2.69v11.75h2.9Z"/>
  <rect class="st1" x="42.26" y="6.74" width="111.74" height="25.26"/>
  <text class="st0" transform="translate(36.47 20.94)"><tspan x="0" y="0">FITNESS</tspan></text>
</svg>
